icons/wechat-2-fill.svg

<svg xmlns="http://www.w3.org/2000/svg" width="24" height="24" fill="none"><g clip-path="url(#a)"><g><path fill="#121212" d="M5.457 18.185C3.358 16.677 2 14.4 2 11.908C2 7.32298 6.475 3.59998 12 3.59998C17.525 3.59998 22 7.32298 22 11.908C22 16.492 17.525 20.215 12 20.215C10.8927 20.2216 9.79037 20.0663 8.728 19.754C8.636 19.724 8.512 19.724 8.42 19.724C8.235 19.724 8.05 19.784 7.895 19.877L5.704 21.138C5.64775 21.1722 5.58453 21.1934 5.519 21.2C5.42933 21.1995 5.34345 21.1637 5.27986 21.1005C5.21627 21.0373 5.18005 20.9516 5.179 20.862C5.179 20.769 5.209 20.708 5.241 20.615C5.271 20.585 5.549 19.569 5.704 18.954C5.704 18.892 5.734 18.8 5.734 18.738C5.734 18.492 5.642 18.308 5.457 18.185ZM8.667 10.511C9.384 10.511 9.952 9.94298 9.952 9.22598C9.952 8.50798 9.384 7.93998 8.667 7.93998C7.949 7.93998 7.382 8.50798 7.382 9.22598C7.382 9.94298 7.949 10.511 8.667 10.511ZM15.333 10.511C16.051 10.511 16.618 9.94298 16.618 9.22598C16.618 8.50798 16.051 7.93998 15.333 7.93998C14.616 7.93998 14.048 8.50798 14.048 9.22598C14.048 9.94298 14.616 10.511 15.333 10.511Z"/></g></g><defs><clipPath id="a"><rect width="24" height="24" fill="white"/></clipPath></defs></svg>

<svg width="24" height="24" fill="none" xmlns="http://www.w3.org/2000/svg"><g clip-path="url(#a)"><path d="M5.457 18.185C3.358 16.677 2 14.4 2 11.908 2 7.323 6.475 3.6 12 3.6s10 3.723 10 8.308c0 4.584-4.475 8.307-10 8.307a11.361 11.361 0 0 1-3.272-.461c-.092-.03-.216-.03-.308-.03-.185 0-.37.06-.525.153l-2.191 1.261a.441.441 0 0 1-.185.062.342.342 0 0 1-.34-.338c0-.093.03-.154.062-.247.03-.03.308-1.046.463-1.661 0-.062.03-.154.03-.216 0-.246-.092-.43-.277-.553Zm3.21-7.674c.717 0 1.285-.568 1.285-1.285 0-.718-.568-1.286-1.285-1.286-.718 0-1.285.568-1.285 1.286 0 .717.567 1.285 1.285 1.285Zm6.666 0c.718 0 1.285-.568 1.285-1.285 0-.718-.567-1.286-1.285-1.286-.717 0-1.285.568-1.285 1.286 0 .717.568 1.285 1.285 1.285Z" /></g><defs><clipPath id="a"><path fill="#fff" d="M0 0h24v24H0z"/></clipPath></defs></svg>
